X: 43081
T: Wind The Bobbin Up
R: barndance
M: 4/4
K: Gmajor
d2 de d2 B2|d^cde d2 B2|c3 A B2 BG|AGFE D2 Bc|
d3 e dBBc|d^cde d4|c2 Ac B2 GB|AG F2 G4||
A3 F D4|GABc d2 B2|c2 cA B2 BG|ABAF DEFG|
A2 AF D2 D/E/F|G2 Bc d2 Bd|c2 A2 B2 GB|AG F2 GABc||

